!!!OTL: Der bon vivant (45a), S. 145
!!!id: T0176
**kern
*clefG2
*k[f#]
*G:
{8d
=1
8g
8g
8b
8g
=2
8a
8a
8cc}
=3
{8a
=4
8g
16g
16g
16b
16b
8b
=5
4a}
8r
=6
{8dd
=7
8dd
8dd
8ff#
8ee
=8
8dd
8b
8g}
=9
{8b
=10
8a
16a
16a
16dd
16dd
16cc
16cc
=11
4b}
8r
==
*-
!!!minrhy: 16
!!!meters: 2/4 ]  ZZ[4
!!!cut: Der bon vivant (45a), S. 145
!!!reg: Luxemburg
!!!trd: Singendes Volk, Esch-Alzette 1937 posth.
!!!rhy1: X_  X_X_X_X_  X_X_X_
!!!rhy2: X_  X_XXXXX_  X__0_
!!!key: T0176  16  G 2/4 ]  ZZ[4
!!!mod: HEPTATONIK IONISCH]  AMBITUS[10
!!!kad: 4213
!!!akz: 12_12_55_23_
!!!fot: 'a__av_b__c__
!!!for: 'a__b__a__c__
!!!fok: '/__-__^d_^__
!! PHRAS[AUFTAKTIG]
!!!fkt: Liebeslieder
!!!bem1: Drinklingen, fff Nelly Gieres;
!!!bem2: aufgeschrieben in Esch_Alz., 1.3.1930
!! THILL, Mathias:
!! PR[32] 2K[0] 2G[18] 3K[0] 3G[7] 4A[18] 4Ü[0] 5A[0] 6K[0] 6G[0]
!! 7K[0] 7G[0] 8A[0] MEHR[0] SI[43] ABS[28] SR[18] SP[25]
!! ST[8] 2k[0] 2g[11] 3k[4] 3g[0] 4d[0] 4ü[0] 5d[4] 6k[0] 6g[7]
!! 7k[0] 7g[0] 8d[0] mehr[0] si[25] dm[+18] sr[11] sp[14]
!! 1F[6] 2F[87] 3F[6] 4F[0] LF[0] 2P[0] 3P[0] 4P[0] TRI[0] DF[3] AB[31]
!! TF[0] U3K[0] U3[0] U4[0] U4Ü[0] U5[10] U6K[0] U6[0] U7K[0] U7[0]
!! N1[21] N2K[0] N2[17] N3K[0] N3[21] N4[0] N4Ü[0] N5[24] N6K[0] N6[3]
!!!n7k: 0] N7[3] O1[0] O2K[0] O2[0] O3K[0] O3[0] HÖ[0
